packages/react-icons/icons/cube.svg

<svg width="24" height="24" viewBox="0 0 24 24" xmlns="http://www.w3.org/2000/svg"><path d="M16.7747 19.9297L17.9853 19.0928L21.1403 13.6282L21.251 12.1564L17.8745 3.84461L16.0212 2.77461L7.21639 4.06507L6.01945 4.89822L2.85445 10.3802L2.74005 11.8383L6.02625 20.0865L7.87454 21.1651L16.7747 19.9297ZM7.33476 4.78004L16.1346 3.49824C16.2265 3.48235 16.3204 3.48193 16.4125 3.497L13.1525 9.14349C13.0199 9.11313 10.4892 9.47645 9.86116 9.5642L10.1371 10.2662L12.7921 9.84765L13.3637 10.1776L14.3547 12.7012L15.1056 12.5805C14.9252 12.153 13.8909 9.60447 13.7897 9.49983L17.0447 3.862C17.1078 3.94036 17.1585 4.02804 17.1948 4.1219L20.5713 12.4337L20.5823 12.4747L13.8883 13.529L13.7257 13.5506L11.1887 13.9449L10.6171 13.6149L9.80558 11.4605L9.7663 11.3685L8.87889 8.98554L7.29378 4.79102L7.33476 4.78004ZM6.70096 19.8178L3.41476 11.5697C3.39549 11.5115 3.37961 11.4522 3.36718 11.3921L7.97719 10.6473L7.70623 9.93663L3.55665 10.6239L6.65665 5.25456C6.6624 5.24161 6.67256 5.23111 6.68531 5.22492C6.68531 5.22492 7.40997 7.10977 8.19221 9.15489C8.55637 10.1041 8.93652 11.0857 9.27505 11.9394C9.77902 13.2465 10.1728 14.2244 10.2061 14.2667L6.85612 20.0691C6.78955 19.9955 6.73697 19.9103 6.70096 19.8178V19.8178ZM10.8247 14.6354C10.8866 14.648 12.2333 14.4556 13.9151 14.2026C14.8509 14.0616 15.8997 13.9051 16.8716 13.7618C18.8426 13.4679 20.5331 13.2199 20.5331 13.2199C20.5267 13.2357 20.5212 13.2518 20.5167 13.2682L17.4217 18.6289L15.8829 14.6343L15.1456 14.7513L16.8475 19.1634C16.7923 19.1842 16.7359 19.2018 16.6786 19.216L7.77849 20.4515C7.68341 20.4658 7.58665 20.4645 7.49198 20.4477L10.842 14.6454L10.8247 14.6354Z"/></svg>

<svg xmlns="http://www.w3.org/2000/svg" width="24" height="24"><path d="m16.775 19.93 1.21-.837 3.155-5.465.111-1.472-3.377-8.311-1.853-1.07-8.805 1.29-1.197.833-3.165 5.482-.114 1.458 3.286 8.249 1.849 1.078 8.9-1.235ZM7.335 4.78l8.8-1.282a.837.837 0 0 1 .277-.001l-3.26 5.646c-.132-.03-2.663.333-3.29.421l.275.702 2.655-.418.572.33.99 2.523.752-.12c-.18-.428-1.215-2.977-1.316-3.081l3.255-5.638a.976.976 0 0 1 .15.26l3.376 8.312.011.04-6.694 1.055-.162.022-2.537.394-.572-.33-.811-2.155-.04-.092-.887-2.382L7.294 4.79l.04-.011ZM6.7 19.818 3.415 11.57a1.589 1.589 0 0 1-.048-.178l4.61-.745-.27-.71-4.15.687 3.1-5.37a.06.06 0 0 1 .028-.03s.725 1.886 1.507 3.93c.364.95.745 1.932 1.083 2.785.504 1.307.898 2.285.931 2.328l-3.35 5.802a.816.816 0 0 1-.155-.251Zm4.124-5.183c.062.013 1.408-.18 3.09-.432a976.88 976.88 0 0 1 2.957-.441c1.97-.294 3.661-.542 3.661-.542a.436.436 0 0 0-.016.048l-3.095 5.36-1.54-3.994-.736.117 1.701 4.412c-.055.021-.111.039-.168.053l-8.9 1.235a.886.886 0 0 1-.287-.003l3.35-5.803-.017-.01Z"/></svg>
